src/topics/icons/vernemq.svg

<svg height="230" preserveAspectRatio="xMidYMid" viewBox="0 0 256 230" width="256" xmlns="http://www.w3.org/2000/svg" xmlns:xlink="http://www.w3.org/1999/xlink"><linearGradient id="a" x1="50%" x2="51.668965%" y1="0%" y2="69.24908%"><stop offset="0" stop-color="#54beaf"/><stop offset="1" stop-color="#25488d"/></linearGradient><linearGradient id="b" x1="50%" x2="50%" y1="0%" y2="100%"><stop offset="0" stop-color="#0e2e62"/><stop offset="1" stop-color="#08154e"/></linearGradient><path d="m128.22116 229.503163c-5.648663 0-11.373065-1.437538-16.617278-4.46258-15.9447104-9.196307-21.4146276-29.574816-12.2198347-45.518012l93.9171597-162.8402363c9.194793-15.94471008 29.571787-21.41462724 45.518012-12.21983434 15.943195 9.19630774 21.414627 29.57481654 12.218319 45.51801184l-93.917159 162.8402368c-6.169752 10.698982-17.37619 16.682414-28.899219 16.682414" fill="url(#a)"/><path d="m156.914889 212.319168c-2.806911 4.903385-6.898367 9.156923-12.128947 12.206201-15.900781 9.269018-36.305041 3.893018-45.5740589-12.007763l-94.67152665-162.4024617c-9.26901775-15.9022959-3.89453254-36.3035266 12.00776335-45.57405919 15.900781-9.27053255 36.3050414-3.89453255 45.5740591 12.00624849l94.6700121 162.4039764c6.219739 10.668686 5.845586 23.36871.122698 33.367858" fill="url(#a)"/><path d="m157.020071 179.401847-28.918911-49.609468-28.6886627 49.742769c-9.1947929 15.943196-3.7248757 36.321704 12.2198347 45.518012 1.078532.62258 2.181301 1.160331 3.296189 1.64961.36355.157538.725586.319621 1.095195.463526.415053.165113.831622.319622 1.251219.466556.672568.234793 1.349681.451409 2.034367.642273.209041.057562.416568.122698.62561.17723.854343.219645 1.71626.398391 2.585751.54987.240852.042414.481704.080284.722556.118154.896758.136331 1.798059.246911 2.70542.310533.042415.003029.083314.009088.125728.012118.942201.062106 1.890462.06968 2.838722.051503.243882-.004544.487763-.013633.73316-.024237.901302-.03787 1.804118-.101491 2.703905-.213586.056047-.007574.112095-.009088.168142-.016662.961894-.124213 1.920758-.302959 2.876592-.513515.195408-.043929.389302-.087858.58471-.134817 3.097751-.740733 6.14097-1.929846 9.034225-3.61581 5.23058-3.049278 9.322035-7.302817 12.128946-12.206201 5.722888-9.999148 6.097042-22.699172-.122698-33.367858" fill="url(#b)"/><g fill="#fff"><path d="m140.87574 197.816568c0 6.901396-5.595645 12.497041-12.497042 12.497041-6.901396 0-12.497041-5.595645-12.497041-12.497041s5.595645-12.497041 12.497041-12.497041c6.901397 0 12.497042 5.595645 12.497042 12.497041"/><path d="m234.792899 31.1893491c0 6.9013965-5.595645 12.4970414-12.497041 12.4970414s-12.497041-5.5956449-12.497041-12.4970414c0-6.9013964 5.595645-12.4970414 12.497041-12.4970414s12.497041 5.595645 12.497041 12.4970414"/><path d="m46.2011834 31.1893491c0 6.9013965-5.5956449 12.4970414-12.4970414 12.4970414-6.9013964 0-12.4970414-5.5956449-12.4970414-12.4970414 0-6.9013964 5.595645-12.4970414 12.4970414-12.4970414 6.9013965 0 12.4970414 5.595645 12.4970414 12.4970414"/></g></svg>

<?xml version="1.0" encoding="UTF-8" standalone="no"?>
<svg width="256px" height="230px" viewBox="0 0 256 230" version="1.1" xmlns="http://www.w3.org/2000/svg" xmlns:xlink="http://www.w3.org/1999/xlink" preserveAspectRatio="xMidYMid">
    <defs>
        <linearGradient x1="50%" y1="0%" x2="51.6689645%" y2="69.2490796%" id="linearGradient-1">
            <stop stop-color="#54BEAF" offset="0%"></stop>
            <stop stop-color="#25488D" offset="100%"></stop>
        </linearGradient>
        <linearGradient x1="50%" y1="0%" x2="50%" y2="100%" id="linearGradient-2">
            <stop stop-color="#0E2E62" offset="0%"></stop>
            <stop stop-color="#08154E" offset="100%"></stop>
        </linearGradient>
    </defs>
	<g>
		<path d="M128.22116,229.503163 C122.572497,229.503163 116.848095,228.065625 111.603882,225.040583 C95.6591716,215.844276 90.1892544,195.465767 99.3840473,179.522571 L193.301207,16.6823347 C202.496,0.737624622 222.872994,-4.73229254 238.819219,4.46250036 C254.762414,13.6588081 260.233846,34.0373169 251.037538,49.9805122 L157.120379,212.820749 C150.950627,223.519731 139.744189,229.503163 128.22116,229.503163" fill="url(#linearGradient-1)"></path>
		<path d="M156.914889,212.319168 C154.107978,217.222553 150.016522,221.476091 144.785942,224.525369 C128.885161,233.794387 108.480901,228.418387 99.2118831,212.517606 L4.54035645,50.1151443 C-4.7286613,34.2128484 0.645823906,13.8116177 16.5481198,4.54108511 C32.4489008,-4.72944744 52.8531612,0.646552562 62.1221789,16.5473336 L156.792191,178.95131 C163.01193,189.619996 162.637777,202.32002 156.914889,212.319168" fill="url(#linearGradient-1)"></path>
		<path d="M157.020071,179.401847 L128.10116,129.792379 L99.4124973,179.535148 C90.2177044,195.478344 95.6876216,215.856852 111.632332,225.05316 C112.710864,225.67574 113.813633,226.213491 114.928521,226.70277 C115.292071,226.860308 115.654107,227.022391 116.023716,227.166296 C116.438769,227.331409 116.855338,227.485918 117.274935,227.632852 C117.947503,227.867645 118.624616,228.084261 119.309302,228.275125 C119.518343,228.332687 119.72587,228.397823 119.934912,228.452355 C120.789255,228.672 121.651172,228.850746 122.520663,229.002225 C122.761515,229.044639 123.002367,229.082509 123.243219,229.120379 C124.139977,229.25671 125.041278,229.36729 125.948639,229.430912 C125.991054,229.433941 126.031953,229.44 126.074367,229.44303 C127.016568,229.505136 127.964829,229.51271 128.913089,229.494533 C129.156971,229.489989 129.400852,229.4809 129.646249,229.470296 C130.547551,229.432426 131.450367,229.368805 132.350154,229.25671 C132.406201,229.249136 132.462249,229.247622 132.518296,229.240048 C133.48019,229.115835 134.439054,228.937089 135.394888,228.726533 C135.590296,228.682604 135.78419,228.638675 135.979598,228.591716 C139.077349,227.850983 142.120568,226.66187 145.013823,224.975906 C150.244403,221.926628 154.335858,217.673089 157.142769,212.769705 C162.865657,202.770557 163.239811,190.070533 157.020071,179.401847" fill="url(#linearGradient-2)"></path>
		<path d="M140.87574,197.816568 C140.87574,204.717964 135.280095,210.313609 128.378698,210.313609 C121.477302,210.313609 115.881657,204.717964 115.881657,197.816568 C115.881657,190.915172 121.477302,185.319527 128.378698,185.319527 C135.280095,185.319527 140.87574,190.915172 140.87574,197.816568" fill="#FFFFFF"></path>
		<path d="M234.792899,31.1893491 C234.792899,38.0907456 229.197254,43.6863905 222.295858,43.6863905 C215.394462,43.6863905 209.798817,38.0907456 209.798817,31.1893491 C209.798817,24.2879527 215.394462,18.6923077 222.295858,18.6923077 C229.197254,18.6923077 234.792899,24.2879527 234.792899,31.1893491" fill="#FFFFFF"></path>
		<path d="M46.2011834,31.1893491 C46.2011834,38.0907456 40.6055385,43.6863905 33.704142,43.6863905 C26.8027456,43.6863905 21.2071006,38.0907456 21.2071006,31.1893491 C21.2071006,24.2879527 26.8027456,18.6923077 33.704142,18.6923077 C40.6055385,18.6923077 46.2011834,24.2879527 46.2011834,31.1893491" fill="#FFFFFF"></path>
	</g>
</svg>
